X:1
T:The Drunken Piper
M:C|
L:1/8
Q:80
C:A. MacLeod
S:March
K:HP
|: {gef}e | \
{g}A{GdGe}A3/4{e}B/4{gef}e3/2f/2 | \
{g}e3/4d/4B/4d3/4{gef}e{fg}g |
{a}G3/4{d}G/4{e}G3/4B/4{Gdc}d{adG}d3/4e/4 | \
{gde}d3/4B/4{g}G3/4B/4{Gdc}d{gef}e | \
{g}A{GdGe}A3/4{e}B/4{gef}e3/2f/2 |
{g}e3/4d/4B/4d3/4{gef}e{ag}a | \
{f}g{a}e/4a3/4e3/4f/4{gef}e3/4d/4 | \
{gBd}B{e}A{GAG}A:| [ |
{gf}g | \
{ag}a2{ef}e{ag}a | \
{ef}e{GdG}e3/4f/4{gf}g{ag}a |
G3/4{d}G/4{e}G3/4B/4{Gdc}d{adG}d3/4e/4 | \
{gde}d3/4B/4{g}G3/4B/4{Gdc}d{gf}g | \
{ag}a2{ef}e{ag}a |
{ef}e{GdG}e3/4f/4{gf}g{ag}a | \
{f}g{a}e/4a3/4e3/4f/4{gef}e3/4d/4 | \
{gBd}B{e}A{GAG}A|] [ |
{gf}g | \
{ag}a2{ef}e{ag}a | \
{ef}e{GdG}e3/4f/4{gf}g{ag}a |
G3/4{d}G/4{e}G3/4B/4{Gdc}d{adG}d3/4e/4 | \
{gde}d3/4B/4{g}G3/4B/4{Gdc}d{gef}e | \
{g}A{GdGe}A3/4{e}B/4{gef}e3/2f/2 |
{g}e3/4d/4B/4d3/4{gef}e{ag}a | \
{f}g{a}e/4a3/4e3/4f/4{gef}e3/4d/4 | \
{gBd}B{e}A{GAG}A|]
